!!!OTL: KEINE ROSE OHNE DORNEN
!!!ARE: Europa, Mitteleuropa, Deutschland
!!!SCT: E0680
!!!YEM: Copyright 1995, estate of Helmut Schaffrath.
**kern
*ICvox
*Ivox
!! Mixed meters:  3/4; 2/4
*M3/4
*k[b-e-a-]
*E-:
=1
{8b-
8g
8b-
8g
8ee-
8cc
=2
4b-
8a-
8b-
4g}
=3
*M2/4
{8b-
8ee-
8cc
16b-
16a-
=4
4g
4f
=5
4e-
4r}
=6
*M3/4
{8b-
8g
8b-
8g
8ee-
8cc
=7
4b-
8a-
8b-
4g}
=8
*M2/4
{8b-
8ee-
8cc
16b-
16a-
=9
4g
4f
=10
4e-
4r}
=11
{8f
8g
=12
*M3/4
8.b-
16a-
4f
8g
8a-
=13
*M2/4
8.cc
16b-
4g}
=14
{8f
8g
=15
*M3/4
8.b-
16a-
4f
8g
8a-
=16
8.cc
16b-
4g
4r}
=17
{8b-
8g
8b-
8g
8ee-
8cc
=18
4b-
8a-
8b-
4g}
=19
*M2/4
{8b-
8ee-
8cc
16b-
16a-
=20
4g
4f
=21
4e-
4r}
==
!!!AGN: Liebes - Lied, Leid, Klage
!!!ONB: ESAC (Essen Associative Code) Database: ERK2
!!!AMT: irregular
!!!AIN: vox
!!!EED: Helmut Schaffrath
!!!EEV: 1.0
*-
